assets/img/round.svg

<svg width="405" height="396" viewBox="0 0 405 396" fill="none" xmlns="http://www.w3.org/2000/svg">
<path d="M22.0756 134.365C22.2792 134.486 22.5075 134.56 22.7435 134.58C22.9796 134.6 23.2176 134.567 23.4389 134.482C23.6601 134.397 23.8586 134.264 24.0209 134.091C24.1832 133.919 24.3045 133.711 24.3754 133.485C29.7254 116.295 37.3255 99.4855 48.4555 85.2155L52.806 79.8455C54.306 78.1055 55.8058 76.3755 57.2758 74.5955L61.8754 69.4055L66.6654 64.4055C73.1777 57.8435 80.1996 51.808 87.6654 46.3555C95.1652 40.8825 103.113 36.052 111.425 31.9155L117.755 28.9155L124.205 26.2255C126.355 25.4555 128.996 24.4655 131.866 23.5355C134.736 22.6055 137.795 21.6455 140.755 20.8555C148.968 18.4779 157.316 16.5978 165.755 15.2255C174.192 13.8534 182.728 13.1845 191.276 13.2255C209.568 13.2606 227.759 15.9555 245.276 21.2255C252.056 23.2765 258.713 25.7138 265.215 28.5255C266.835 29.2555 268.496 29.8855 270.076 30.6855L274.885 32.9755C278.025 34.6255 281.206 36.2055 284.266 37.9755C287.076 39.5155 289.765 41.2655 292.505 42.9755C293.855 43.8355 295.165 44.7655 296.505 45.6555L298.505 47.0154L300.505 48.4355L304.396 51.2955L308.175 54.2955C309.445 55.2955 310.665 56.2954 311.885 57.3954C313.105 58.4954 314.356 59.4654 315.526 60.5754C320.336 64.9154 324.875 69.5755 329.255 74.3655C333.574 79.2388 337.646 84.3251 341.455 89.6055C345.246 94.8726 348.738 100.348 351.915 106.005C355.445 112.295 358.456 118.945 361.856 125.345C362.856 127.115 363.856 129.405 365.776 130.345C366.993 130.994 368.265 131.536 369.576 131.966C370.089 132.183 370.643 132.289 371.2 132.275C371.757 132.261 372.304 132.128 372.806 131.885C374.026 131.095 374.116 129.265 374.066 127.885C374.002 126.236 373.754 124.599 373.326 123.005C372.886 121.405 372.326 119.815 371.786 118.275C368.728 109.792 364.951 101.585 360.495 93.7455C358.265 89.8555 355.716 86.1554 353.146 82.5054C351.146 79.8054 349.206 77.0754 347.076 74.5054C344.946 71.9354 342.826 69.3355 340.646 66.8055C336.2 61.7794 331.497 56.9863 326.556 52.4454C324.166 50.1654 321.556 48.0554 319.106 45.8954C317.856 44.8254 316.525 43.8255 315.245 42.7955C313.965 41.7655 312.676 40.7255 311.326 39.7955C305.216 35.2115 298.875 30.9458 292.326 27.0154C285.797 23.07 279.023 19.5461 272.045 16.4655C254.056 8.49252 234.914 3.42936 215.335 1.46545C213.105 1.27545 210.885 1.04546 208.665 0.905457L201.986 0.605469C199.706 0.605469 197.435 0.605435 195.165 0.695435C192.895 0.785435 190.635 1.00543 188.375 1.12543C178.095 1.76542 167.885 3.2471 157.846 5.55548C147.719 8.09546 137.803 11.4119 128.186 15.4755C118.614 19.2538 109.286 23.6222 100.255 28.5555C91.2553 33.6155 83.1757 40.0655 75.4457 46.7855C67.5742 53.5616 60.2729 60.9732 53.6156 68.9454C47.0203 76.8708 41.2101 85.4175 36.266 94.4655C31.2546 103.406 27.2309 112.865 24.266 122.675C23.596 125.015 22.8953 127.345 22.3353 129.675L21.8353 131.675C21.6066 132.24 21.4521 132.831 21.3754 133.435C21.3054 133.805 21.6456 134.095 22.0756 134.365Z" fill="#F5B400"/>
<path d="M403.766 159.556C403.656 158.446 403.535 157.316 403.415 156.196C403.295 155.076 403.165 154.346 403.045 153.476C402.805 151.816 402.585 150.156 402.455 148.476C402.365 145.182 402.526 141.886 402.936 138.616C403.196 135.336 402.686 132.046 402.596 128.756C402.506 125.466 402.595 122.096 402.535 118.756C402.475 115.416 402.406 112.126 402.156 108.806C402.015 105.451 401.641 102.109 401.035 98.8059C400.869 98.0059 400.709 97.2058 400.556 96.4058L400.446 95.7459C400.446 95.5859 400.546 95.2958 400.356 95.1458C400.038 95.0141 399.7 94.9364 399.356 94.9158C398.356 94.7859 397.425 94.9958 397.425 95.3358C397.305 101.336 397.756 107.336 396.766 113.336C396.46 114.85 396.232 116.378 396.085 117.916L395.795 122.536L395.245 131.796C395.045 134.906 394.825 138.016 394.535 141.126C394.395 142.686 394.236 144.256 394.056 145.816C393.876 147.376 393.466 149.616 393.276 151.686C393.276 152.346 393.175 153.006 393.125 153.686L393.066 154.686V155.136C393.031 155.206 393.004 155.28 392.986 155.356C392.986 155.486 392.985 155.656 392.875 155.676L392.675 155.496C392.597 155.411 392.531 155.317 392.476 155.216C392.473 155.193 392.473 155.169 392.476 155.146H392.356L383.556 152.386C378.996 150.976 374.376 149.776 369.726 148.626L357.135 145.566C352.915 144.566 348.686 143.566 344.446 142.566L338.135 141.126C335.795 140.586 333.515 139.786 330.955 139.956C330.459 139.925 329.963 140.026 329.519 140.249C329.074 140.472 328.697 140.809 328.425 141.226C327.805 142.046 327.176 142.866 326.566 143.856C326.002 144.725 325.568 145.672 325.276 146.666C324.986 147.553 325.054 148.518 325.465 149.356C326.01 150.336 326.908 151.073 327.976 151.416C330.521 152.578 333.128 153.599 335.785 154.476C337.115 154.886 338.486 155.146 339.856 155.476L352.146 158.206L358.215 159.586C362.905 160.656 367.466 162.126 372.076 163.416L381.026 165.896L390.776 168.536L396.936 170.216C399.006 170.776 400.936 171.016 402.696 171.366C403.346 171.486 404.026 171.646 404.696 171.746C404.266 167.336 404.126 163.386 403.766 159.556Z" fill="#F5B400"/>
<path d="M382.965 261.915C382.761 261.794 382.533 261.72 382.297 261.699C382.061 261.679 381.823 261.711 381.601 261.795C381.379 261.878 381.179 262.011 381.016 262.182C380.852 262.354 380.729 262.56 380.655 262.785C375.305 279.975 367.655 296.785 356.575 311.065L352.226 316.425C350.726 318.175 349.225 319.905 347.755 321.685L343.155 326.875L338.365 331.875C331.856 338.425 324.834 344.444 317.365 349.875C309.868 355.355 301.92 360.189 293.606 364.325L287.275 367.325L280.825 370.005C278.675 370.775 276.045 371.775 273.175 372.705C270.305 373.635 267.245 374.595 264.275 375.385C256.063 377.76 247.714 379.636 239.275 381.005C230.843 382.387 222.31 383.056 213.766 383.005C195.473 382.975 177.282 380.28 159.766 375.005C152.984 372.955 146.325 370.514 139.825 367.695C138.205 366.975 136.545 366.335 134.965 365.545L130.165 363.255C127.025 361.605 123.835 360.015 120.785 358.255C117.965 356.705 115.275 354.955 112.545 353.255C111.185 352.395 109.875 351.465 108.545 350.565L106.545 349.215L104.596 347.795L100.715 344.925L96.9356 341.925C95.6556 340.925 94.4456 339.925 93.2256 338.825C92.0056 337.725 90.7553 336.745 89.5753 335.645C84.7653 331.295 80.2255 326.645 75.8555 321.855C71.4855 317.065 67.4256 311.935 63.6456 306.615C59.8532 301.346 56.361 295.868 53.1856 290.205C49.6556 283.925 46.6452 277.265 43.2452 270.875C42.2452 269.105 41.2453 266.815 39.3253 265.875C38.1062 265.232 36.8352 264.694 35.5254 264.265C35.0144 264.048 34.4624 263.942 33.9073 263.954C33.3522 263.966 32.8069 264.096 32.3057 264.335C31.0857 265.135 30.9852 266.965 31.0352 268.335C31.0987 269.988 31.3472 271.628 31.7754 273.225C32.2154 274.825 32.7755 276.405 33.3155 277.945C36.372 286.434 40.1524 294.644 44.6153 302.485C46.8353 306.375 49.3851 310.075 51.9551 313.725C53.9551 316.425 55.9554 319.145 58.0254 321.725C60.0954 324.305 62.2751 326.895 64.4551 329.425C68.9015 334.448 73.6043 339.238 78.545 343.775C80.935 346.065 83.5452 348.175 85.9952 350.335C87.2452 351.405 88.5755 352.395 89.8555 353.435C91.1355 354.475 92.4355 355.495 93.7755 356.435C99.8825 361.019 106.224 365.282 112.775 369.205C119.301 373.155 126.076 376.678 133.056 379.755C151.044 387.731 170.186 392.794 189.766 394.755C191.996 394.935 194.216 395.175 196.436 395.305L203.125 395.615C205.395 395.615 207.676 395.615 209.936 395.515C212.196 395.415 214.465 395.215 216.735 395.095C227.012 394.449 237.219 392.968 247.255 390.665C257.38 388.121 267.296 384.804 276.915 380.745C286.485 376.957 295.816 372.589 304.856 367.665C313.856 362.605 321.935 356.155 329.665 349.435C337.534 342.653 344.835 335.238 351.495 327.265C358.089 319.342 363.9 310.799 368.846 301.755C373.85 292.811 377.873 283.353 380.846 273.545C381.516 271.195 382.215 268.865 382.775 266.495L383.275 264.495C383.506 263.932 383.661 263.34 383.735 262.735C383.725 262.475 383.365 262.155 382.965 261.915Z" fill="#F5B400"/>
<path d="M47.9854 250.786C52.2054 251.806 56.4348 252.806 60.6748 253.786L66.9951 255.226C69.3251 255.766 71.605 256.566 74.165 256.386C74.6607 256.421 75.1568 256.322 75.6016 256.1C76.0463 255.879 76.424 255.543 76.6953 255.126C77.3153 254.306 77.9457 253.476 78.5557 252.496C79.1285 251.627 79.5666 250.676 79.8555 249.676C80.1442 248.788 80.0722 247.822 79.6553 246.986C79.0972 246.03 78.2023 245.317 77.1455 244.986C74.5984 243.825 71.9908 242.801 69.335 241.916C68.005 241.516 66.6356 241.246 65.2656 240.916L59.1348 239.566L52.9756 238.196L46.9053 236.806C42.2153 235.746 37.6549 234.276 33.0449 232.986L24.1055 230.506L14.3457 227.866L8.19531 226.186C6.12531 225.626 4.19555 225.376 2.43555 225.036C1.77555 224.916 1.09555 224.756 0.435547 224.656C0.735547 228.976 0.875352 232.926 1.23535 236.746C1.35535 237.866 1.46496 238.986 1.58496 240.116C1.70496 241.246 1.83508 241.956 1.95508 242.836C2.19508 244.496 2.41492 246.156 2.54492 247.836C2.63455 251.13 2.4746 254.426 2.06543 257.696C1.80543 260.976 2.31527 264.266 2.40527 267.556C2.49527 270.846 2.40484 274.216 2.46484 277.556C2.52484 280.896 2.5957 284.186 2.8457 287.556C2.98615 290.912 3.35953 294.253 3.96484 297.556C4.13484 298.356 4.30531 299.146 4.44531 299.946L4.55566 300.616C4.55566 300.776 4.45527 301.066 4.65527 301.216C4.97292 301.35 5.3112 301.428 5.65527 301.446C6.65527 301.576 7.5857 301.366 7.5957 301.026C7.7157 295.026 7.25488 289.026 8.25488 283.026C8.50488 281.496 8.8248 280.026 8.9248 278.446L9.21484 273.816L9.76562 264.556C9.96562 261.456 10.1856 258.346 10.4756 255.236C10.6156 253.666 10.7848 252.106 10.9648 250.536C11.1448 248.966 11.5454 246.746 11.7354 244.676C11.7354 244.006 11.8348 243.356 11.8848 242.676L11.9453 241.676V241.226C11.9867 241.155 12.0139 241.077 12.0254 240.996C12.0254 240.866 12.0248 240.706 12.1348 240.686C12.2066 240.74 12.2737 240.8 12.335 240.866C12.4153 240.949 12.4829 241.043 12.5352 241.146V241.206H12.6553L21.4551 243.966C26.0151 245.376 30.6352 246.576 35.2852 247.716L47.9854 250.786Z" fill="#F5B400"/>
</svg>

<svg width="405" height="396" fill="none" xmlns="http://www.w3.org/2000/svg"><path d="M22.076 134.365a1.567 1.567 0 0 0 2.3-.88c5.35-17.19 12.95-34 24.08-48.27l4.35-5.37c1.5-1.74 3-3.47 4.47-5.25l4.6-5.19 4.79-5a174.993 174.993 0 0 1 21-18.05 165.055 165.055 0 0 1 23.759-14.44l6.33-3 6.45-2.69c2.15-.77 4.791-1.76 7.661-2.69 2.87-.93 5.929-1.89 8.889-2.68a212.636 212.636 0 0 1 25-5.63 154.374 154.374 0 0 1 25.521-2 188.698 188.698 0 0 1 54 8 185.71 185.71 0 0 1 19.939 7.3c1.62.73 3.281 1.36 4.861 2.16l4.809 2.29c3.14 1.65 6.321 3.23 9.381 5 2.81 1.54 5.499 3.29 8.239 5 1.35.86 2.66 1.79 4 2.68l2 1.36 2 1.42 3.891 2.86 3.779 3c1.27 1 2.49 2 3.71 3.1 1.22 1.1 2.471 2.07 3.641 3.18 4.81 4.34 9.349 9 13.729 13.79a194.791 194.791 0 0 1 12.2 15.24 173.534 173.534 0 0 1 10.46 16.4c3.53 6.29 6.541 12.94 9.941 19.34 1 1.77 2 4.06 3.92 5a23.917 23.917 0 0 0 3.8 1.621 3.918 3.918 0 0 0 3.23-.081c1.22-.79 1.31-2.62 1.26-4a22.128 22.128 0 0 0-.74-4.88c-.44-1.6-1-3.19-1.54-4.73a158.224 158.224 0 0 0-11.291-24.53c-2.23-3.89-4.779-7.59-7.349-11.24-2-2.7-3.94-5.43-6.07-8-2.13-2.57-4.25-5.17-6.43-7.7a194.77 194.77 0 0 0-14.09-14.36c-2.39-2.28-5-4.39-7.45-6.55-1.25-1.07-2.581-2.07-3.861-3.1-1.28-1.03-2.569-2.07-3.919-3a222.13 222.13 0 0 0-19-12.78 178.964 178.964 0 0 0-20.281-10.55 185.695 185.695 0 0 0-56.71-15c-2.23-.19-4.45-.42-6.67-.56l-6.679-.3c-2.28 0-4.551 0-6.821.09-2.27.09-4.53.31-6.79.43-10.28.64-20.49 2.122-30.529 4.43a203.226 203.226 0 0 0-29.66 9.92 248.843 248.843 0 0 0-27.931 13.08c-9 5.06-17.08 11.51-24.81 18.23a189.56 189.56 0 0 0-21.83 22.16 159.353 159.353 0 0 0-17.349 25.52 141.299 141.299 0 0 0-12 28.21c-.67 2.34-1.37 4.67-1.93 7l-.5 2a7.059 7.059 0 0 0-.46 1.76c-.07.37.27.66.7.93Z" fill="#F5B400"/><path d="M403.766 159.556c-.11-1.11-.231-2.24-.351-3.36-.12-1.12-.25-1.85-.37-2.72-.24-1.66-.46-3.32-.59-5-.09-3.294.071-6.59.481-9.86.26-3.28-.25-6.57-.34-9.86-.09-3.29-.001-6.66-.061-10s-.129-6.63-.379-9.95a72.227 72.227 0 0 0-1.121-10c-.166-.8-.326-1.6-.479-2.4l-.11-.66c0-.16.1-.45-.09-.6a3.097 3.097 0 0 0-1-.23c-1-.13-1.931.08-1.931.42-.12 6 .331 12-.659 18a44.475 44.475 0 0 0-.681 4.58l-.29 4.62-.55 9.26c-.2 3.11-.42 6.22-.71 9.33-.14 1.56-.299 3.13-.479 4.69-.18 1.56-.59 3.8-.78 5.87 0 .66-.101 1.32-.151 2l-.059 1v.45c-.035.07-.062.144-.08.22 0 .13-.001.3-.111.32l-.2-.18a1.41 1.41 0 0 1-.199-.28.273.273 0 0 1 0-.07h-.12l-8.8-2.76c-4.56-1.41-9.18-2.61-13.83-3.76l-12.591-3.06c-4.22-1-8.449-2-12.689-3l-6.311-1.44c-2.34-.54-4.62-1.34-7.18-1.17a2.81 2.81 0 0 0-2.53 1.27c-.62.82-1.249 1.64-1.859 2.63a10.702 10.702 0 0 0-1.29 2.81 3.581 3.581 0 0 0 .189 2.69 4.42 4.42 0 0 0 2.511 2.06 76.63 76.63 0 0 0 7.809 3.06c1.33.41 2.701.67 4.071 1l12.29 2.73 6.069 1.38c4.69 1.07 9.251 2.54 13.861 3.83l8.95 2.48 9.75 2.64 6.16 1.68c2.07.56 4 .8 5.76 1.15.65.12 1.33.28 2 .38-.43-4.41-.57-8.36-.93-12.19Zm-20.801 102.359a1.584 1.584 0 0 0-1.364-.12 1.596 1.596 0 0 0-.946.99c-5.35 17.19-13 34-24.08 48.28l-4.349 5.36c-1.5 1.75-3.001 3.48-4.471 5.26l-4.6 5.19-4.79 5a173.232 173.232 0 0 1-21 18 164.18 164.18 0 0 1-23.759 14.45l-6.331 3-6.45 2.68c-2.15.77-4.78 1.77-7.65 2.7-2.87.93-5.93 1.89-8.9 2.68a212.414 212.414 0 0 1-25 5.62 152.1 152.1 0 0 1-25.509 2 188.336 188.336 0 0 1-54-8 183.726 183.726 0 0 1-19.941-7.31c-1.62-.72-3.28-1.36-4.86-2.15l-4.8-2.29c-3.14-1.65-6.33-3.24-9.38-5-2.82-1.55-5.51-3.3-8.24-5-1.36-.86-2.67-1.79-4-2.69l-2-1.35-1.949-1.42-3.881-2.87-3.78-3c-1.28-1-2.49-2-3.71-3.1-1.22-1.1-2.47-2.08-3.65-3.18-4.81-4.35-9.35-9-13.72-13.79-4.37-4.79-8.43-9.92-12.21-15.24a172.57 172.57 0 0 1-10.46-16.41c-3.53-6.28-6.54-12.94-9.94-19.33-1-1.77-2-4.06-3.92-5a24.469 24.469 0 0 0-3.8-1.61 3.924 3.924 0 0 0-3.22.07c-1.22.8-1.32 2.63-1.27 4 .064 1.653.312 3.293.74 4.89.44 1.6 1 3.18 1.54 4.72a157.41 157.41 0 0 0 11.3 24.54c2.22 3.89 4.77 7.59 7.34 11.24 2 2.7 4 5.42 6.07 8 2.07 2.58 4.25 5.17 6.43 7.7a194.613 194.613 0 0 0 14.09 14.35c2.39 2.29 5 4.4 7.45 6.56 1.25 1.07 2.58 2.06 3.86 3.1 1.28 1.04 2.58 2.06 3.92 3a219.526 219.526 0 0 0 19 12.77 177.225 177.225 0 0 0 20.281 10.55 185.51 185.51 0 0 0 56.71 15c2.23.18 4.45.42 6.67.55l6.689.31c2.27 0 4.551 0 6.811-.1s4.529-.3 6.799-.42a189.65 189.65 0 0 0 30.52-4.43 204.424 204.424 0 0 0 29.66-9.92 253.325 253.325 0 0 0 27.941-13.08c9-5.06 17.079-11.51 24.809-18.23a190.457 190.457 0 0 0 21.83-22.17 159.557 159.557 0 0 0 17.351-25.51 142.348 142.348 0 0 0 12-28.21c.67-2.35 1.369-4.68 1.929-7.05l.5-2a6.818 6.818 0 0 0 .46-1.76c-.01-.26-.37-.58-.77-.82Z" fill="#F5B400"/><path d="M47.985 250.786c4.22 1.02 8.45 2.02 12.69 3l6.32 1.44c2.33.54 4.61 1.34 7.17 1.16a2.78 2.78 0 0 0 1.437-.286 2.781 2.781 0 0 0 1.093-.974c.62-.82 1.25-1.65 1.86-2.63a10.306 10.306 0 0 0 1.3-2.82 3.56 3.56 0 0 0-.2-2.69 4.443 4.443 0 0 0-2.51-2 79.198 79.198 0 0 0-7.81-3.07c-1.33-.4-2.7-.67-4.07-1l-6.13-1.35-6.16-1.37-6.07-1.39c-4.69-1.06-9.25-2.53-13.86-3.82l-8.94-2.48-9.76-2.64-6.15-1.68c-2.07-.56-4-.81-5.76-1.15-.66-.12-1.34-.28-2-.38.3 4.32.44 8.27.8 12.09.12 1.12.23 2.24.35 3.37.12 1.13.25 1.84.37 2.72.24 1.66.46 3.32.59 5 .09 3.294-.07 6.59-.48 9.86-.26 3.28.25 6.57.34 9.86.09 3.29 0 6.66.06 10s.13 6.63.38 10a72.358 72.358 0 0 0 1.12 10c.17.8.34 1.59.48 2.39l.11.67c0 .16-.1.45.1.6.318.134.656.212 1 .23 1 .13 1.93-.08 1.94-.42.12-6-.34-12 .66-18 .25-1.53.57-3 .67-4.58l.29-4.63.55-9.26c.2-3.1.42-6.21.71-9.32.14-1.57.31-3.13.49-4.7.18-1.57.58-3.79.77-5.86 0-.67.1-1.32.15-2l.06-1v-.45a.633.633 0 0 0 .08-.23c0-.13 0-.29.11-.31.072.054.139.114.2.18.08.083.148.177.2.28v.06h.12l8.8 2.76c4.56 1.41 9.18 2.61 13.83 3.75l12.7 3.07Z" fill="#F5B400"/></svg>
